img/opa-arrow.svg

<svg width="741" height="151" viewBox="0 0 741 151" fill="none" xmlns="http://www.w3.org/2000/svg">
<path fill-rule="evenodd" clip-rule="evenodd" d="M190.355 15.5H740.969V0.5H182.855L175.355 8V99.8688H6.59137V114.869H182.855L190.355 107.369V15.5Z" fill="#FCB72B"/>
<path fill-rule="evenodd" clip-rule="evenodd" d="M0.909874 112.516L39.3361 150.943L49.9427 140.336L16.8198 107.213L49.9427 74.0901L39.3361 63.4835L0.909874 101.91V112.516Z" fill="#FCB72B"/>
</svg>

<svg width="741" height="151" fill="none" xmlns="http://www.w3.org/2000/svg"><path fill-rule="evenodd" clip-rule="evenodd" d="M190.355 15.5h550.614V.5H182.855l-7.5 7.5v91.869H6.591v15h176.264l7.5-7.5V15.5Z" fill="#FCB72B"/><path fill-rule="evenodd" clip-rule="evenodd" d="m.91 112.516 38.426 38.427 10.607-10.607-33.123-33.123L49.943 74.09 39.336 63.483.91 101.91v10.606Z" fill="#FCB72B"/></svg>
